src/symbolic/status/weather-showers-night-symbolic.svg

<?xml version="1.0" encoding="UTF-8" standalone="no"?>
<svg
   xmlns:dc="http://purl.org/dc/elements/1.1/"
   xmlns:cc="http://creativecommons.org/ns#"
   xmlns:rdf="http://www.w3.org/1999/02/22-rdf-syntax-ns#"
   xmlns:svg="http://www.w3.org/2000/svg"
   xmlns="http://www.w3.org/2000/svg"
   id="svg8"
   version="1.1"
   width="16"
   height="16">
  <metadata
     id="metadata14">
    <rdf:RDF>
      <cc:Work
         rdf:about="">
        <dc:format>image/svg+xml</dc:format>
        <dc:type
           rdf:resource="http://purl.org/dc/dcmitype/StillImage" />
        <dc:title></dc:title>
      </cc:Work>
    </rdf:RDF>
  </metadata>
  <defs
     id="defs12" />
  <path
     style="opacity:0.6;vector-effect:none;fill:#555761;fill-opacity:1;stroke:none;stroke-width:1.00000012;stroke-linecap:butt;stroke-linejoin:miter;stroke-miterlimit:4;stroke-dasharray:none;stroke-dashoffset:0;stroke-opacity:1;marker:none;paint-order:normal"
     d="m 9.000001,2.9999988 a 2.5,2.5 0 0 0 -2.164063,1.253906 1.5,1.5 0 0 0 -0.835937,-0.253906 1.5,1.5 0 0 0 -1.5,1.5 1.5,1.5 0 0 0 0.101562,0.542969 2,2 0 0 0 -1.601562,1.957031 2,2 0 0 0 2,2.0000002 h 6 a 2,2 0 0 0 2,-2.0000002 2,2 0 0 0 -1.56445,-1.951172 2.5,2.5 0 0 0 0.0644,-0.548828 2.5,2.5 0 0 0 -2.5,-2.5 z"
     id="path859-9-2" />
  <path
     id="rect1023-12-8-2"
     class="info"
     d="M 5.046875 11.011719 C 4.9018469 10.993548 4.7536875 11.062328 4.6757812 11.197266 L 4.0507812 12.279297 C 3.9469062 12.459214 4.0075832 12.687141 4.1875 12.791016 C 4.3674168 12.894891 4.5953437 12.834214 4.6992188 12.654297 L 5.3242188 11.572266 C 5.4280938 11.392349 5.3674168 11.162469 5.1875 11.058594 C 5.1425208 11.032625 5.0952177 11.017776 5.046875 11.011719 z M 6.5996094 11.011719 C 6.4545813 10.993548 6.3064219 11.062328 6.2285156 11.197266 L 5.1035156 13.144531 C 4.9996406 13.324448 5.0622707 13.554328 5.2421875 13.658203 C 5.4221043 13.762078 5.6500312 13.699448 5.7539062 13.519531 L 6.8789062 11.572266 C 6.9827812 11.392349 6.9221043 11.162469 6.7421875 11.058594 C 6.6972083 11.032625 6.6479521 11.017776 6.5996094 11.011719 z M 8.1386719 11.011719 C 7.9936438 10.993548 7.8454844 11.062328 7.7675781 11.197266 L 6.8925781 12.712891 C 6.7887031 12.892807 6.8493801 13.120734 7.0292969 13.224609 C 7.2092137 13.328484 7.4371406 13.267807 7.5410156 13.087891 L 8.4160156 11.572266 C 8.5198906 11.392349 8.4592137 11.162469 8.2792969 11.058594 C 8.2343177 11.032625 8.1870146 11.017776 8.1386719 11.011719 z M 9.6269531 11.011719 C 9.481925 10.993548 9.3337656 11.062328 9.2558594 11.197266 L 8.1308594 13.144531 C 8.0269844 13.324448 8.0876613 13.554328 8.2675781 13.658203 C 8.4474949 13.762078 8.677375 13.699448 8.78125 13.519531 L 9.90625 11.572266 C 10.010125 11.392349 9.9474949 11.162469 9.7675781 11.058594 C 9.7225989 11.032625 9.6752958 11.017776 9.6269531 11.011719 z M 11.046875 11.011719 C 10.901847 10.993548 10.753687 11.062328 10.675781 11.197266 L 10.050781 12.279297 C 9.9469062 12.459214 10.007583 12.687141 10.1875 12.791016 C 10.367417 12.894891 10.595344 12.834214 10.699219 12.654297 L 11.324219 11.572266 C 11.428094 11.392349 11.367417 11.162469 11.1875 11.058594 C 11.142521 11.032625 11.095218 11.017776 11.046875 11.011719 z "
     style="opacity:1;vector-effect:none;fill:#64baff;fill-opacity:1;stroke:none;stroke-width:1.00000012;stroke-linecap:butt;stroke-linejoin:miter;stroke-miterlimit:4;stroke-dasharray:none;stroke-dashoffset:0;stroke-opacity:1;marker:none;paint-order:normal" />
</svg>

<svg xmlns="http://www.w3.org/2000/svg" width="16" height="16"><path style="marker:none" d="M9 3a2.5 2.5 0 0 0-2.164 1.254A1.5 1.5 0 0 0 6 4a1.5 1.5 0 0 0-1.5 1.5 1.5 1.5 0 0 0 .102.543A2 2 0 0 0 3 8a2 2 0 0 0 2 2h6a2 2 0 0 0 2-2 2 2 0 0 0-1.564-1.951A2.5 2.5 0 0 0 11.5 5.5 2.5 2.5 0 0 0 9 3z" opacity=".6" fill="#555761"/><path class="info" d="M5.047 11.012a.375.375 0 0 0-.371.185L4.05 12.28a.373.373 0 0 0 .136.512c.18.104.408.043.512-.137l.625-1.082a.376.376 0 0 0-.277-.56zm1.553 0a.375.375 0 0 0-.371.185l-1.125 1.948a.376.376 0 0 0 .65.375l1.125-1.948a.376.376 0 0 0-.28-.56zm1.539 0a.375.375 0 0 0-.371.185l-.875 1.516a.373.373 0 0 0 .136.512c.18.103.408.043.512-.137l.875-1.516a.376.376 0 0 0-.277-.56zm1.488 0a.375.375 0 0 0-.371.185L8.13 13.145a.376.376 0 1 0 .65.375l1.125-1.948a.376.376 0 0 0-.279-.56zm1.42 0a.375.375 0 0 0-.371.185l-.625 1.082a.373.373 0 0 0 .136.512c.18.104.408.043.512-.137l.625-1.082a.376.376 0 0 0-.277-.56z" style="marker:none" fill="#64baff"/></svg>
